Origami/48x48/apps/fluid.svg

<svg width="48" height="48" version="1" xmlns="http://www.w3.org/2000/svg">
 <path d="m22 5c-2.216 0-4 1.784-4 4v12c0 0.311568 0.0426 0.611613 0.109375 0.902344l-5.068359 7.304687-5.1425785 7.41211a6.7158128 5.5885405 0 0 0 5.8164065 8.380859h10.285156 10.285156a6.7158128 5.5885405 0 0 0 5.816406 -8.380859l-5.142578-7.41211-5.068359-7.30664c0.066502-0.29017 0.109375-0.589479 0.109375-0.900391v-12c0-2.216-1.784-4-4-4h-4z" style="opacity:.2"/>
 <rect x="18" y="4" width="12" height="20" ry="4" style="fill:#cccccc"/>
 <path d="m24.316109 18.006167a6.7158128 5.5885405 0 0 0 -6.13107 2.787518l-5.143079 7.412379-5.1430799 7.412377a6.7158128 5.5885405 0 0 0 5.8161639 8.381559h10.284955 10.284957a6.7158128 5.5885405 0 0 0 5.816164 -8.381559l-5.14308-7.412377-5.141878-7.412379a6.7158128 5.5885405 0 0 0 -5.500053 -2.787518z" style="fill:#cccccc"/>
 <path d="m24 10a2 2 0 0 0 -2 2 2 2 0 0 0 2 2 2 2 0 0 0 2 -2 2 2 0 0 0 -2 -2zm-2 6a2 2 0 0 0 -2 2 2 2 0 0 0 2 2 2 2 0 0 0 2 -2 2 2 0 0 0 -2 -2zm4 4a2 2 0 0 0 -2 2 2 2 0 0 0 2 2 2 2 0 0 0 2 -2 2 2 0 0 0 -2 -2zm-4 6a2 2 0 0 0 -2 2 2 2 0 0 0 2 2 2 2 0 0 0 2 -2 2 2 0 0 0 -2 -2zm-6.34375 6l-2.074219 2.841797a4.345526 3.4391019 0 0 0 3.763672 5.158203h6.654297 6.654297a4.345526 3.4391019 0 0 0 3.763672 -5.158203l-2.074219-2.841797h-16.6875z" style="fill:#578aff"/>
 <path d="m22 4c-2.216 0-4 1.784-4 4v1c0-2.216 1.784-4 4-4h4c2.216 0 4 1.784 4 4v-1c0-2.216-1.784-4-4-4h-4zm7.996094 17.052734c-0.004604 0.291709-0.042806 0.574238-0.105469 0.847657l5.068359 7.30664 5.142578 7.41211a6.7158128 5.5885405 0 0 1 0.863282 2.304687 6.7158128 5.5885405 0 0 0 -0.863282 -3.304687l-5.142578-7.41211-4.96289-7.154297zm-11.992188 0.001954l-4.96289 7.152343-5.1425785 7.41211a6.7158128 5.5885405 0 0 0 -0.8652344 3.308593 6.7158128 5.5885405 0 0 1 0.8652344 -2.308593l5.1425785-7.41211 5.068359-7.304687c-0.062795-0.273403-0.100755-0.555943-0.105469-0.847656z" style="fill:#ffffff;opacity:.2"/>
</svg>

<svg xmlns="http://www.w3.org/2000/svg" width="48" height="48" version="1">
 <path style="opacity:0.2" d="m 22,5 c -2.216,0 -4,1.784 -4,4 l 0,12 c 0,0.311568 0.0426,0.611613 0.109375,0.902344 l -5.068359,7.304687 -5.1425785,7.41211 A 6.7158128,5.5885405 0 0 0 13.714844,45 L 24,45 34.285156,45 a 6.7158128,5.5885405 0 0 0 5.816406,-8.380859 l -5.142578,-7.41211 -5.068359,-7.30664 C 29.957127,21.610221 30,21.310912 30,21 L 30,9 C 30,6.784 28.216,5 26,5 l -4,0 z"/>
 <rect style="fill:#cccccc" width="12" height="20" x="18" y="4" ry="4"/>
 <path style="fill:#cccccc" d="m 24.316109,18.006167 a 6.7158128,5.5885405 0 0 0 -6.13107,2.787518 L 13.04196,28.206064 7.8988801,35.618441 A 6.7158128,5.5885405 0 0 0 13.715044,44 l 10.284955,0 10.284957,0 a 6.7158128,5.5885405 0 0 0 5.816164,-8.381559 l -5.14308,-7.412377 -5.141878,-7.412379 a 6.7158128,5.5885405 0 0 0 -5.500053,-2.787518 z"/>
 <path style="fill:#578aff" d="M 24 10 A 2 2 0 0 0 22 12 A 2 2 0 0 0 24 14 A 2 2 0 0 0 26 12 A 2 2 0 0 0 24 10 z M 22 16 A 2 2 0 0 0 20 18 A 2 2 0 0 0 22 20 A 2 2 0 0 0 24 18 A 2 2 0 0 0 22 16 z M 26 20 A 2 2 0 0 0 24 22 A 2 2 0 0 0 26 24 A 2 2 0 0 0 28 22 A 2 2 0 0 0 26 20 z M 22 26 A 2 2 0 0 0 20 28 A 2 2 0 0 0 22 30 A 2 2 0 0 0 24 28 A 2 2 0 0 0 22 26 z M 15.65625 32 L 13.582031 34.841797 A 4.345526 3.4391019 0 0 0 17.345703 40 L 24 40 L 30.654297 40 A 4.345526 3.4391019 0 0 0 34.417969 34.841797 L 32.34375 32 L 15.65625 32 z"/>
 <path style="opacity:0.2;fill:#ffffff" d="M 22 4 C 19.784 4 18 5.784 18 8 L 18 9 C 18 6.784 19.784 5 22 5 L 26 5 C 28.216 5 30 6.784 30 9 L 30 8 C 30 5.784 28.216 4 26 4 L 22 4 z M 29.996094 21.052734 C 29.99149 21.344443 29.953288 21.626972 29.890625 21.900391 L 34.958984 29.207031 L 40.101562 36.619141 A 6.7158128 5.5885405 0 0 1 40.964844 38.923828 A 6.7158128 5.5885405 0 0 0 40.101562 35.619141 L 34.958984 28.207031 L 29.996094 21.052734 z M 18.003906 21.054688 L 13.041016 28.207031 L 7.8984375 35.619141 A 6.7158128 5.5885405 0 0 0 7.0332031 38.927734 A 6.7158128 5.5885405 0 0 1 7.8984375 36.619141 L 13.041016 29.207031 L 18.109375 21.902344 C 18.04658 21.628941 18.00862 21.346401 18.003906 21.054688 z"/>
</svg>
